public/assets/img/heart-dark.svg

<svg width="24" height="24" viewBox="0 0 24 24" fill="none" xmlns="http://www.w3.org/2000/svg">
<path fill-rule="evenodd" clip-rule="evenodd" d="M12.8789 19.6484C12.5742 19.8438 12.2305 20.0312 11.9961 20.0312C11.7695 20.0312 11.418 19.8438 11.1211 19.6484C6.79297 16.8359 3.98047 13.5234 3.98047 10.1719C3.98047 7.20312 6.04297 5.16406 8.62891 5.16406C10.1445 5.16406 11.3164 5.85156 11.9961 6.85938C12.6914 5.84375 13.8477 5.16406 15.3711 5.16406C17.9492 5.16406 20.0195 7.20312 20.0195 10.1719C20.0195 13.5234 17.207 16.8359 12.8789 19.6484ZM11.8633 17.9766C11.9258 18.0156 11.9727 18.0391 11.9961 18.0391C12.0273 18.0391 12.0742 18.0156 12.1367 17.9766C15.4492 15.7656 18.1445 12.7891 18.1445 10.1641C18.1445 8.27344 16.8789 6.98438 15.1914 6.98438C13.8398 6.98438 13.1133 7.78906 12.5977 8.5C12.3711 8.8125 12.2227 8.9375 11.9961 8.9375C11.7773 8.9375 11.6133 8.8125 11.3945 8.5C10.9102 7.78125 10.1602 6.98438 8.80859 6.98438C7.12109 6.98438 5.85547 8.27344 5.85547 10.1641C5.85547 12.7891 8.55078 15.7656 11.8633 17.9766Z" fill="#E0E0FF" fill-opacity="0.8"/>
</svg>

<svg width="24" height="24" fill="none" xmlns="http://www.w3.org/2000/svg"><path fill-rule="evenodd" clip-rule="evenodd" d="M12.879 19.648c-.305.196-.649.383-.883.383-.226 0-.578-.187-.875-.383-4.328-2.812-7.14-6.125-7.14-9.476 0-2.969 2.062-5.008 4.648-5.008 1.516 0 2.687.688 3.367 1.695.695-1.015 1.852-1.695 3.375-1.695 2.578 0 4.649 2.04 4.649 5.008 0 3.351-2.813 6.664-7.141 9.476Zm-1.016-1.671c.063.039.11.062.133.062.031 0 .078-.023.14-.062 3.313-2.211 6.009-5.188 6.009-7.813 0-1.89-1.266-3.18-2.954-3.18-1.351 0-2.078.805-2.593 1.516-.227.313-.375.438-.602.438-.219 0-.383-.126-.601-.438-.485-.719-1.235-1.516-2.586-1.516-1.688 0-2.954 1.29-2.954 3.18 0 2.625 2.696 5.602 6.008 7.813Z" fill="#E0E0FF" fill-opacity=".8"/></svg>
